X:1547
T:Kiss Your Partner
R:reel
N:"collected from McFadden"
B:"O'Neill's Dance Music of Ireland, 1547"
T: pog do .co.m.ta.c.
Z:transcribed by John B. Walsh, walsh@math.ubc.ca 8/23/96
M:C|
L:1/8
K:G
3gfe|d2 Bd efge|dBGB AGEG|d2 Bd efgb|afdf g2 3gfe|
d2 Bd efge|dBGB AGEG|d2 Bd efgb|afdf g2||
d2|g2 agf gbag|fdad bdad|g2 agf gbag|fdef g2 d2|
g2 agf gbag|fdad bdad|edeg fdfb|afdf g2||
